X:1
T:Maloney's Fancy -- Jig
R:jig
B:Ryan's Mammoth Collection
N: 90 473
Z: Contributed by Ray Davies,  ray:davies99.freeserve.co.uk
M:6/8
L:1/8
K:D
uD|\
F2A AFA | AFA d2B | AGF G2A | BGE E2d |
F2A AFA | AFA d2B | AGF G2B | AFD D2 H:|
|:u(c/d/)|\
ecA ABA | edc d2B | AGF G2B | BGE E2F |
ecA ABA | edc d2B | AGF G2B | AFD D2:|
|:(f/g/)|\
agf g2e | fec d2B | AGF G2B | BGE E(fg) |
agf g2e | fdc d2B | AGF G2B | AFD D2 "_D.C.":|
